!!! OTL: Berkowitz508
!!! Chapter: 1
!!! Section: IV
!!! Page: 127
!!! Mode: 
!!! Encoder: DJB
**kern
*staff1
*I"Piano
=1-
*clefG2
*k[f#c#g#d#]
*B:
*M4/4
8..g#/L
32e/Jkk
8..A/L
32c#/Jkk
8..B/L
32g#/Jkk
8..A/L
32c#/Jkk
=2
6B/
12g#/
6f##/
12g#/
8cc#/L
8b/
8g#/
8e/J
=3
8..c#/L
32f#/Jkk
8..e#/L
32f#/Jkk
8..c#/L
32f#/Jkk
8..e#/L
32g#/Jkk
=4
6a/
12cc#\
6b#\
12cc#\
8dd#\L
8cc#\J
8.a/L
16f#/Jk
=5
!!linebreak:original
8b/L
8g#/
8B/
8G#/J
8b/L
8g#/J
8.d#/L
16e/Jk
=6
6c#/
12f#/
8.a\L
16cc#\Jk
8dd#\L
8cc#\J
6a/
12f#/
=7
8..b/L
32e/Jkk
8..A#/L
32c#/Jkk
6B/
12g#/
6An/
12c#/
=8
8B/L
8B#/
8c#/
8d#/J
4r
4Bn/
==
*-
